X:1
T:The Green Fields of America (2)
M:3/4
L:1/4
K:C
 C| CC/2-D/2E/2-F/2| G E3/2 G/2| AG/2-E/2D/2-E/2| C A,A/2-B/2| c BA/2-B/2|\
A/2-G/2 E D| E A B| A2A/2-B/2| c BA/2-B/2|A/2-G/2 ED/2-E/2| G ED/2-E/2|\
 C A,C/2-D/2| E A G| E E E| D C C| C2||
